public/img/link.svg

<svg height="24" viewBox="0 0 24 24" width="24" xmlns="http://www.w3.org/2000/svg"><path d="m17.5 6.5h-4.4v2.2h4.4a3.3 3.3 0 0 1 0 6.6h-4.4v2.2h4.4a5.5 5.5 0 0 0 0-11zm-6.6 8.8h-4.4a3.3 3.3 0 0 1 0-6.6h4.4v-2.2h-4.4a5.5 5.5 0 0 0 0 11h4.4zm-3.3-4.4h8.8v2.2h-8.8zm9.9-4.4h-4.4v2.2h4.4a3.3 3.3 0 0 1 0 6.6h-4.4v2.2h4.4a5.5 5.5 0 0 0 0-11zm-6.6 8.8h-4.4a3.3 3.3 0 0 1 0-6.6h4.4v-2.2h-4.4a5.5 5.5 0 0 0 0 11h4.4zm-3.3-4.4h8.8v2.2h-8.8z" fill="#5f6369"/></svg>

<svg id="a4a9530b-0723-4f5d-b497-7008e42576be" data-name="Layer 1" xmlns="http://www.w3.org/2000/svg" width="24" height="24" viewBox="0 0 24 24">
  <defs>
    <style>
      .a11d1f3a-86eb-4111-b3b1-81b999cb625c {
        fill: #5f6369;
      }
    </style>
  </defs>
  <path class="a11d1f3a-86eb-4111-b3b1-81b999cb625c" d="M17.5,6.5H13.1V8.7h4.4a3.3,3.3,0,0,1,0,6.6H13.1v2.2h4.4a5.5,5.5,0,0,0,0-11Zm-6.6,8.8H6.5a3.3,3.3,0,0,1,0-6.6h4.4V6.5H6.5a5.5,5.5,0,0,0,0,11h4.4ZM7.6,10.9h8.8v2.2H7.6Zm9.9-4.4H13.1V8.7h4.4a3.3,3.3,0,0,1,0,6.6H13.1v2.2h4.4a5.5,5.5,0,0,0,0-11Zm-6.6,8.8H6.5a3.3,3.3,0,0,1,0-6.6h4.4V6.5H6.5a5.5,5.5,0,0,0,0,11h4.4ZM7.6,10.9h8.8v2.2H7.6Z"/>
</svg>
